X: 5418
T: Bulgarian, The
R: polka
M: 2/4
K: Aminor
|:c>B|"Am"A>e c>e|"Am"A>e c>e|"G"G>A B>c|"G"d>c B>G|
"Am"A>e c>e|"Am"A>e c>e|"G"d>c B>G|"Am"A2:|
|:c>B|"Am"A>B c>d|"Am"e<f e>e|"C"g>c (3ccc|"G"d2 "E7"^d2|
"Am"e>f e>d|"F"c<A A>c|"G"d>c B>G|"Am"A2:|

